X: 36836
T: Ship Doctor, The
R: slip jig
M: 9/8
K: Eminor
GFE ~E2e BGE|BGE~E2d AFD|GFE ~E2F GAB|cBA G2A BGE:|
g2e efe ede|gfg A2B c3|BAE ~E2F GAB|cBA G2A BGE|
~g3 e2d e2f|~g3 A2B cBA|BGE ~E2F GAB|cBA G2A BGE|

